X:1
T:Title
%%score { ( 1 3 ) | ( 2 4 ) }
L:1/8
Q:1/4=100
M:4/4
K:Ab
V:1 treble nm="Grand Piano"
V:3 treble 
V:2 bass 
V:4 bass 
V:1
 A3 A GGFG | F4 E4 | A4 z4 | F4 E4 | c4 z4 | A6 CF, | B4 z4 |[M:7/8] B- B3 [Ee]3 |[M:1/4] [DE]2 | %9
w: Charles~F.~Allen * * * * *|||||||||
[M:4/4] [Cc]>[Cc] [CB]>[CB] [CA]<[CA] [CE]>[CA] | [DG]6[K:bass] z2 | d>d c>c B<B [EA]>[EB] | %12
w: |||
 c->[Ac-] [Gc-]>[Fc-] [Ec]2 c>d | e>e =d>d _d2 c>[Ec] |[M:5/4] [FB]>[FB] [Fc]>[Fc] [Fd]3 [F=d]3 | %15
w: |||
[M:4/4] [Ee]>[Ee] [Ee]>[Ec] [FB]<[Fd] [Ec]>[DB] | A->[EA-] [=DA-]>[_DA-] [CA]2 z2 |] %17
w: ||
V:2
 A,,E,A,E, A,,E,[A,C]E, | B,,E,G,E, E,,E,G,E, | C,,E,A,E, A,,E,[A,C]E, | B,,E,G,E, E,G,B,D, | %4
 C,G,CF, C,G,[C=E]G, | F,,F,CF, F,,F, .A,2 | B,,F,B,F, B,,F,=DF, |[M:7/8] E,,B,,G, B, [E,G,B,D]3 | %8
[M:1/4] [E,G,]2 |[M:4/4] [A,,A,]>[A,,A,] [A,,A,]>[A,,A,] [A,,E,]<[A,,E,] [A,,A,]>[A,,E,] | %10
 [B,,E,]>B,, B,,>B,, E,2 [E,G,D]2 | %11
 [E,G,E]>[E,G,E] [E,A,E]>[E,A,E] [E,G,E]<[E,G,E] [C,A,]>[B,,G,] | %12
 [A,,A,]6[K:treble] [A,EA]>[B,EA] | [CEA]>[CEA] [_CFA]>[CFA] [B,EG]2 [A,EA]>[K:bass][A,,A,] | %14
[M:5/4] [D,A,]>[D,A,] [C,=A,]>[C,A,] [B,,B,]3 [_C,_A,]3 | %15
[M:4/4] [C,A,]>[C,A,] [C,A,]>[C,A,] [D,A,]<[D,A,] [E,A,]>[E,G,] | z z/ _G,/ F,>=E, _E,2 z2 |] %17
V:3
 x8 | z2 .[B,D]2 z2 .[B,D]2 | z2 CA GGFG | z2 .[B,D]2 z2 .D2 | z2 =EG ABcB | x8 | z2 =DF FFGA | %7
[M:7/8] x7 |[M:1/4] x2 |[M:4/4] x8 | z z/[K:bass] E,/ E,>E, B,2 E2 | x8 | E2 z2 z4 | x8 | %14
[M:5/4] x10 |[M:4/4] x8 | [A,C]2 z2 z4 |] %17
V:4
 x8 | x8 | x8 | x8 | x8 | x8 | x8 |[M:7/8] x7 |[M:1/4] x2 |[M:4/4] x8 | x8 | x8 | x6[K:treble] x2 | %13
 x15/2[K:bass] x/ |[M:5/4] x10 |[M:4/4] x8 | A,,6 z2 |] %17

